build/img/icon-sass.svg

<svg width="69" height="40" viewBox="0 0 69 40" fill="none" xmlns="http://www.w3.org/2000/svg">
  <path d="M59.3985 22.9691C56.986 22.9797 54.8969 23.4278 53.1448 24.095C52.4979 23.1047 51.851 22.2395 51.7433 21.5933C51.622 20.8428 51.4737 20.3841 51.622 19.4878C51.7701 18.5913 52.444 17.3196 52.444 17.2154C52.4304 17.1215 52.2956 16.6629 50.9075 16.6525C49.5195 16.6421 48.3198 16.861 48.185 17.1424C48.0503 17.4238 47.7807 18.0701 47.6055 18.7372C47.3629 19.717 44.8291 23.188 43.387 25.0121C42.9152 24.3033 42.5109 23.6779 42.4299 23.1775C42.3087 22.4271 42.1603 21.9684 42.3087 21.072C42.457 20.1755 43.1309 18.904 43.1309 18.7997C43.1174 18.7059 42.9826 18.2473 41.5946 18.2369C40.2062 18.2264 39.0068 18.4453 38.872 18.7268C38.7373 19.0082 38.589 19.6753 38.2925 20.3216C38.0093 20.9678 34.6399 26.7633 33.7638 28.2747C33.3191 29.046 32.9284 29.661 32.6452 30.0779C32.3622 30.4949 32.6317 30.1092 32.6048 30.1509C32.3622 30.5053 32.2274 30.7033 32.2274 30.7033V30.7139C32.0387 30.9745 31.8365 31.2245 31.7421 31.2245C31.6747 31.2245 31.5399 30.5262 31.769 29.5673C32.2677 27.5555 33.4807 24.4181 33.4673 24.3034C33.4673 24.2513 33.6963 23.6988 32.6855 23.4174C31.7016 23.136 31.3513 23.6051 31.2703 23.6051C31.1895 23.6051 31.1221 23.7718 31.1221 23.7718C31.1221 23.7718 32.2138 20.2384 29.033 20.2384C27.0383 20.2384 24.2889 21.9166 22.9276 23.4488C22.065 23.8136 20.2321 24.5849 18.2913 25.4084C17.55 25.7211 16.7818 26.0547 16.054 26.357L15.9058 26.2317C12.0512 23.0525 4.92149 20.801 5.218 16.5274C5.32582 14.9743 6.02666 10.8779 18.9115 5.91631C29.4646 1.85115 37.9151 2.96646 39.3841 5.44725C41.4731 8.99123 34.869 15.5789 23.8983 16.5274C19.7202 16.8922 17.5232 15.6414 16.9707 15.1724C16.3912 14.6825 16.3103 14.6616 16.0947 14.7554C15.7442 14.9013 15.9599 15.3391 16.0947 15.5997C16.4181 16.2564 17.7659 17.4238 20.0571 18.0075C22.0652 18.5183 26.9712 18.7997 32.9014 17.0277C39.5459 15.0369 44.7349 9.51241 43.2119 4.8948C41.6619 0.193814 31.5806 -1.34886 22.0518 1.26743C16.3776 2.83095 10.2317 5.27005 5.81102 8.47006C0.554699 12.2642 -0.280921 15.5789 0.0694999 16.9548C1.29611 21.8642 10.043 25.0642 13.5472 27.4304C13.372 27.5032 13.2103 27.5762 13.062 27.6388C11.3099 28.3058 4.63845 31.0056 2.96721 33.8616C1.08033 37.0928 3.26372 39.4174 4.71932 39.7301C9.22089 40.6995 13.8303 38.9588 16.3237 36.0923C18.8034 33.2258 18.507 29.5047 17.3614 27.8056L17.3209 27.7431L18.6956 27.1177C19.5853 26.7112 20.4613 26.3359 21.2294 26.0127C20.7983 26.9195 20.4881 27.9931 20.3265 29.5567C20.1379 31.3913 21.1083 33.7678 22.3886 34.7059C22.9547 35.1123 23.6286 35.1228 24.0464 35.1228C25.529 35.1228 26.2028 34.1742 26.9441 33.0381C27.8606 31.6518 28.6693 30.0466 28.6693 30.0466C28.6693 30.0466 27.6584 34.3932 30.4214 34.3932C31.4322 34.3932 32.443 33.3821 32.9013 32.8609V32.8713C32.9013 32.8713 32.9282 32.8401 32.9821 32.7671C33.0387 32.7024 33.0926 32.6364 33.1439 32.5692V32.5483C33.5482 32.0063 34.4512 30.7659 35.799 28.7125C37.5375 26.0649 39.2089 22.7502 39.2089 22.7502C39.2089 22.7502 39.3706 23.5633 39.8693 24.8975C40.1656 25.6898 40.8126 26.5548 41.3112 27.3991C40.9069 27.8369 40.6643 28.0872 40.6643 28.0872L40.6778 28.0976C40.3545 28.4311 39.9904 28.7856 39.6132 29.1399C38.2385 30.4116 36.5942 31.8606 36.3785 32.2775C36.1225 32.7673 36.1764 33.1321 36.675 33.4241C37.0389 33.6326 37.6859 33.6741 38.3732 33.6326C39.6132 33.5699 40.4758 33.3303 40.907 33.1842C41.5809 32.9966 42.3492 32.7152 43.0904 32.2982C44.4382 31.527 45.2604 30.4325 45.1795 28.9733C45.1391 28.1707 44.8021 27.3785 44.3843 26.628C44.5056 26.4925 44.627 26.3569 44.7482 26.211C46.8777 23.8031 48.522 21.1556 48.522 21.1556C48.522 21.1556 48.6837 21.9687 49.1824 23.3029C49.4383 23.9804 49.9506 24.7206 50.4089 25.4502C48.4142 26.7115 47.1607 28.1708 46.7294 29.1297C45.9342 30.9017 46.5542 31.7043 47.7268 31.8919C48.2523 31.9753 49.0072 31.7877 49.5731 31.6001C50.2739 31.4229 51.123 31.1205 51.9049 30.6724C53.2527 29.9011 54.5465 28.8274 54.4791 27.3786C54.4387 26.7115 54.2096 26.0548 53.8996 25.4294C55.5978 24.8874 57.7945 24.5747 60.5845 24.8352C66.5821 25.3773 67.7682 28.275 67.5392 29.4841C67.3101 30.6933 66.0566 31.3603 65.6387 31.5688C65.2209 31.7669 65.0861 31.8399 65.1265 31.9858C65.1805 32.2047 65.3691 32.1942 65.733 32.1526C66.2317 32.09 68.8868 31.1624 68.9947 28.9319C69.1564 26.065 65.6387 22.938 59.3985 22.9691V22.9691ZM13.1429 35.0291C11.1617 36.7073 8.37179 37.3431 7.18575 36.8011C5.90536 36.2278 6.4039 33.7574 8.84351 31.975C10.3261 30.891 12.2534 29.8903 13.5203 29.2753C13.8033 29.1398 14.2346 28.9419 14.7468 28.702C14.8276 28.6605 14.8815 28.6395 14.8815 28.6395C14.9759 28.5978 15.0837 28.5457 15.1915 28.4936C16.0945 31.0369 15.232 33.2675 13.1429 35.0291V35.0291ZM27.6315 27.4095C26.9441 28.7125 25.4885 32.0584 24.6125 31.8708C23.8576 31.7144 23.3995 29.1815 24.4641 26.6799C25.0032 25.4185 26.1488 23.9177 26.8227 23.3338C27.9145 22.3957 29.1004 22.083 29.3971 22.4687C29.7475 22.9691 28.0628 26.5965 27.6315 27.4095ZM39.5862 31.8291C39.2897 31.9439 39.0202 32.0271 38.8989 31.9647C38.8045 31.923 39.02 31.7667 39.02 31.7667C39.02 31.7667 40.5161 30.5263 41.1091 29.953C41.446 29.6195 41.8504 29.2338 42.2816 28.796V28.921C42.2818 30.4219 40.4219 31.4226 39.5862 31.8291ZM48.8049 30.203C48.5892 30.0779 48.6163 29.6923 49.344 28.4831C49.6271 28.0037 50.2739 27.2011 51.3926 26.4401C51.5274 26.7528 51.6084 27.055 51.5948 27.3366C51.5814 29.2128 49.8563 29.9112 48.8049 30.203Z" fill="#CF649A"/>
</svg>

<svg width="69" height="40" fill="none" xmlns="http://www.w3.org/2000/svg"><path d="M59.398 22.97c-2.412.01-4.501.458-6.253 1.125-.647-.99-1.294-1.855-1.402-2.502-.121-.75-.27-1.209-.121-2.105.148-.897.822-2.168.822-2.273-.014-.093-.148-.552-1.537-.563-1.387-.01-2.587.209-2.722.49a9.982 9.982 0 00-.58 1.595c-.242.98-2.776 4.451-4.218 6.275-.472-.709-.876-1.334-.957-1.835-.121-.75-.27-1.209-.121-2.105.148-.896.822-2.168.822-2.272-.014-.094-.148-.553-1.536-.563-1.389-.01-2.588.208-2.723.49-.135.281-.283.948-.58 1.595-.283.646-3.652 6.441-4.528 7.953a29.716 29.716 0 01-1.119 1.803c-.283.417-.013.031-.04.073l-.378.552v.01c-.188.261-.39.511-.485.511-.067 0-.202-.698.027-1.657.499-2.012 1.712-5.149 1.698-5.264 0-.052.23-.604-.782-.886-.983-.281-1.334.188-1.415.188-.08 0-.148.167-.148.167s1.092-3.534-2.089-3.534c-1.995 0-4.744 1.679-6.105 3.21-.863.366-2.696 1.137-4.637 1.96-.741.313-1.51.647-2.237.949l-.148-.125C12.05 23.052 4.92 20.8 5.218 16.527c.108-1.553.809-5.65 13.694-10.61 10.553-4.066 19.003-2.95 20.472-.47 2.09 3.544-4.515 10.132-15.486 11.08-4.178.365-6.375-.886-6.927-1.355-.58-.49-.66-.51-.876-.417-.35.146-.135.584 0 .845.323.656 1.67 1.824 3.962 2.408 2.008.51 6.914.792 12.844-.98 6.645-1.991 11.834-7.516 10.31-12.133-1.55-4.701-11.63-6.244-21.16-3.628-5.673 1.564-11.82 4.003-16.24 7.203C.555 12.264-.281 15.58.069 16.955c1.227 4.91 9.974 8.11 13.478 10.475-.175.073-.337.146-.485.209-1.752.667-8.424 3.367-10.095 6.223-1.887 3.23.297 5.555 1.752 5.868 4.502.97 9.111-.771 11.605-3.638 2.48-2.866 2.183-6.587 1.037-8.286l-.04-.063 1.375-.625c.89-.407 1.765-.782 2.533-1.105-.43.906-.74 1.98-.902 3.544-.19 1.834.781 4.21 2.062 5.149.566.406 1.24.417 1.657.417 1.483 0 2.157-.949 2.898-2.085.917-1.386 1.725-2.991 1.725-2.991s-1.01 4.346 1.752 4.346c1.011 0 2.022-1.01 2.48-1.532v.01s.027-.03.081-.104c.057-.065.11-.13.162-.198v-.02c.404-.543 1.307-1.783 2.655-3.837 1.739-2.647 3.41-5.962 3.41-5.962s.162.813.66 2.148c.297.792.944 1.657 1.442 2.501-.404.438-.647.688-.647.688l.014.01a32.37 32.37 0 01-1.065 1.043c-1.374 1.272-3.019 2.72-3.234 3.138-.256.49-.203.854.296 1.146.364.209 1.01.25 1.698.209 1.24-.063 2.103-.303 2.534-.449a9.896 9.896 0 002.183-.886c1.348-.771 2.17-1.866 2.09-3.325-.04-.802-.378-1.595-.796-2.345.122-.136.243-.271.364-.417 2.13-2.408 3.774-5.055 3.774-5.055s.162.813.66 2.147c.256.677.769 1.418 1.227 2.147-1.995 1.262-3.248 2.72-3.68 3.68-.795 1.772-.175 2.574.998 2.762.525.083 1.28-.104 1.846-.292.7-.177 1.55-.48 2.332-.928 1.348-.77 2.642-1.845 2.574-3.293-.04-.668-.27-1.324-.58-1.95 1.699-.542 3.895-.854 6.685-.594 5.998.542 7.184 3.44 6.955 4.65-.229 1.208-1.482 1.875-1.9 2.084-.418.198-.553.27-.513.417.054.219.243.208.607.167.499-.063 3.154-.99 3.262-3.221.161-2.867-3.356-5.994-9.597-5.963zM13.143 35.03c-1.981 1.677-4.771 2.313-5.957 1.771-1.28-.573-.782-3.044 1.658-4.826 1.482-1.084 3.41-2.085 4.676-2.7.283-.135.715-.333 1.227-.573a1.39 1.39 0 01.135-.063c.094-.041.202-.093.31-.145.902 2.543.04 4.773-2.05 6.535zm14.488-7.62c-.687 1.302-2.143 4.648-3.018 4.46-.755-.156-1.213-2.689-.149-5.19.54-1.261 1.685-2.762 2.359-3.346 1.091-.938 2.277-1.251 2.574-.865.35.5-1.334 4.127-1.765 4.94zm11.955 4.42c-.296.114-.566.197-.687.135-.095-.042.121-.198.121-.198s1.496-1.24 2.09-1.814c.336-.334.74-.72 1.172-1.157v.125c0 1.5-1.86 2.502-2.696 2.908zm9.219-1.627c-.216-.125-.189-.51.539-1.72.283-.48.93-1.282 2.049-2.043.134.313.215.615.202.897-.014 1.876-1.739 2.574-2.79 2.866z" fill="#CF649A"/></svg>
